X: 30
T:Mrs Blair's Jig
M:6/8
L:1/8
R:Jig
K:G
B/2c/2|"G"dBG GBG|"D"AFD DFD|"C"EFG "D"ABc|"G"BAG "D"FED|
"G"dBG "Em"GBG|"D"AFD DFD|"C"EFG "D"AFD|"G"G3-G2::Bc|
"G"dBd dBd|"C"gfg "G"dBG|"C"cec "G"BdB|"Am"ABG "D"FED|
"G"dBd dBd|"C"gfg "G"dBG|"C"EFG "D"AFD|"G"G3-G2:|
